svg/regular/bx-dialpad.svg

<svg xmlns="http://www.w3.org/2000/svg" width="24" height="24"><path d="M10 3h4v3h-4zm0 5h4v3h-4zm0 5h4v3h-4zm6-10h4v3h-4zm0 5h4v3h-4zm0 5h4v3h-4zM4 3h4v3H4zm0 5h4v3H4zm0 5h4v3H4zm6 5h4v3h-4z"/></svg>

<svg xmlns="http://www.w3.org/2000/svg" width="24" height="24" viewBox="0 0 24 24"><path d="M10 3H14V6H10zM10 8H14V11H10zM10 13H14V16H10zM16 3H20V6H16zM16 8H20V11H16zM16 13H20V16H16zM4 3H8V6H4zM4 8H8V11H4zM4 13H8V16H4zM10 18H14V21H10z"/></svg>
